X:1
T:Berne, CM
T:Berne, CM
T:Swiss Melody
T:Public Domain Courtesy of the Cyber Hymnal™
C:Swiss Melody
Z:Public Domain
Z:Courtesy of the Cyber Hymnal™
%%score ( 1 2 ) ( 3 4 )
L:1/8
Q:1/4=126
M:3/4
K:Bb
V:1 treble 
V:2 treble 
V:3 bass 
V:4 bass 
V:1
 [DF]2 | ([DF]2 [EG]2) [EF]2 | ([DF]2 [EG]2) [CF]2 | [DF]4 [DB]2 | [DF]4 [B,D]2 | [B,D]4 [B,D]2 | %6
 ([CF]2 [B,E]2) [B,D]2 | [A,C]4 [EF]2 | ([DF]2 [EG]2) [CF]2 | ([DF]2 [EG]2) [EF]2 | [DF]4 [DB]2 | %11
 [Fd]4 [Gc]2 | [FB]4 [GB]2 | (A2 G2) [EA]2 | [DB]4 |] %15
V:2
 x2 | x6 | x6 | x6 | x6 | x6 | x6 | x6 | x6 | x6 | x6 | x6 | x6 | E4 x2 | x4 |] %15
V:3
 [B,,B,]2 | [B,,B,]4 [B,,A,]2 | [B,,B,]4 [B,,A,]2 | [B,,B,]4 [B,,B,]2 | [B,,B,]4 [B,,F,]2 | %5
 [B,,F,]4 [B,,F,]2 | (A,2 G,2) [B,,F,]2 | [F,,F,]4 [F,A,]2 | [B,,B,]4 [B,,A,]2 | %9
 [B,,B,]4 [B,,A,]2 | [B,,B,]4 [B,,B,]2 | B,4 [E,E]2 | [F,D]4 [F,E]2 | (C2 B,2) [F,C]2 | [B,,B,]4 |] %15
V:4
 x2 | x6 | x6 | x6 | x6 | x6 | B,,4 x2 | x6 | x6 | x6 | x6 | B,4 x2 | x6 | F,4 x2 | x4 |] %15

